X:61
T:We are just an advanced mold, and other Christmasy thoughts
C:Tradformer + Sturm
M:6/8
K:Emin
BEF G2A|Bee Bef|geg afe|dBA B2A|BEF G2A|Bee Bef|geg afd|Bdf e3:|
geg afa|bge dBA|BGB EGB|AFD EFA|geg afa|bge dBA|BGB EGB|AFD E3:| 

